svg/color/hvi.svg

<?xml version="1.0" encoding="UTF-8" ?>
<!DOCTYPE svg PUBLIC "-//W3C//DTD SVG 1.1//EN" "http://www.w3.org/Graphics/SVG/1.1/DTD/svg11.dtd">
<svg width="250pt" height="246pt" viewBox="0 0 250 246" version="1.1" xmlns="http://www.w3.org/2000/svg">
<g id="#ffffffff">
<path fill="#ffffff" opacity="1.00" d=" M 0.00 0.00 L 250.00 0.00 L 250.00 246.00 L 0.00 246.00 L 0.00 0.00 M 118.23 15.27 C 80.26 17.68 44.87 42.53 29.36 77.21 C 12.60 112.55 18.05 156.95 42.50 187.40 C 59.36 209.09 84.99 223.63 112.20 227.25 C 143.52 231.94 176.63 221.35 199.61 199.59 C 219.76 181.03 232.13 154.38 233.52 127.03 C 234.04 108.98 230.54 90.68 222.48 74.46 C 210.45 49.71 188.39 30.01 162.43 20.86 C 148.30 16.01 133.12 13.83 118.23 15.27 Z" />
<path fill="#ffffff" opacity="1.00" d=" M 98.78 181.33 C 100.37 181.26 101.32 181.95 101.64 183.41 C 103.39 183.87 105.15 184.32 106.91 184.74 C 106.53 186.17 106.06 187.57 105.53 188.95 C 103.15 188.29 100.74 187.76 98.28 187.58 C 98.30 188.45 98.33 189.32 98.38 190.19 C 101.83 191.26 105.47 192.56 107.55 195.73 C 107.86 198.94 106.22 202.03 103.01 202.94 C 100.71 203.38 101.47 207.07 98.59 206.42 C 99.16 202.54 94.72 203.16 92.25 202.22 C 92.25 200.57 92.25 198.92 92.26 197.27 C 95.34 198.65 98.87 199.49 102.14 198.22 C 99.55 195.33 95.30 194.96 92.49 192.28 C 92.40 190.34 91.96 188.33 92.57 186.43 C 93.93 183.76 98.35 184.64 98.78 181.33 Z" />
<path fill="#ffffff" opacity="1.00" d=" M 110.66 182.74 C 112.58 182.74 114.50 182.73 116.42 182.73 C 116.50 185.40 116.53 188.06 116.54 190.73 C 118.80 190.72 121.07 190.71 123.34 190.67 C 123.33 188.02 123.36 185.37 123.45 182.73 C 125.15 182.72 126.85 182.70 128.55 182.67 C 129.86 189.81 129.22 197.23 128.94 204.46 C 127.08 204.43 125.22 204.41 123.37 204.40 C 123.34 201.48 123.34 198.56 123.32 195.65 C 121.06 195.63 118.80 195.61 116.54 195.60 C 116.52 198.54 116.51 201.47 116.51 204.41 C 114.54 204.40 112.58 204.39 110.61 204.38 C 110.60 197.17 110.53 189.95 110.66 182.74 Z" />
<path fill="#ffffff" opacity="1.00" d=" M 132.14 182.68 C 134.12 182.71 136.11 182.75 138.10 182.79 C 139.24 187.98 140.91 193.04 142.01 198.24 C 142.92 193.00 144.73 187.97 145.88 182.78 C 147.86 182.75 149.85 182.71 151.83 182.69 C 150.74 190.18 147.45 197.18 145.31 204.42 C 143.10 204.41 140.88 204.41 138.67 204.43 C 136.38 197.23 133.17 190.19 132.14 182.68 Z" />
<path fill="#ffffff" opacity="1.00" d=" M 154.70 183.68 C 156.03 181.91 158.54 183.02 160.41 182.69 C 160.60 189.93 160.47 197.18 160.49 204.43 C 158.54 204.41 156.60 204.39 154.66 204.38 C 154.70 197.48 154.54 190.58 154.70 183.68 Z" />
</g>
<g id="#3ea198ff">
<path fill="#3ea198" opacity="1.00" d=" M 118.23 15.27 C 133.12 13.83 148.30 16.01 162.43 20.86 C 188.39 30.01 210.45 49.71 222.48 74.46 C 230.54 90.68 234.04 108.98 233.52 127.03 C 232.13 154.38 219.76 181.03 199.61 199.59 C 176.63 221.35 143.52 231.94 112.20 227.25 C 84.99 223.63 59.36 209.09 42.50 187.40 C 18.05 156.95 12.60 112.55 29.36 77.21 C 44.87 42.53 80.26 17.68 118.23 15.27 M 82.31 52.41 C 79.61 52.89 76.78 52.60 74.17 53.57 C 67.47 55.76 60.72 57.77 54.01 59.93 C 52.45 62.02 50.87 64.10 49.22 66.12 C 50.49 77.03 53.05 87.74 54.70 98.60 C 55.50 105.10 59.26 110.63 61.59 116.63 C 63.40 121.83 68.24 124.89 71.80 128.81 C 74.08 128.14 76.50 127.74 78.60 126.57 C 80.32 124.67 81.69 122.41 82.60 120.01 C 82.86 113.67 83.40 107.33 84.89 101.14 C 86.27 106.24 88.47 111.07 92.18 114.88 C 94.08 127.05 94.85 139.39 96.74 151.56 C 98.50 155.94 100.54 160.23 102.67 164.45 C 104.67 164.86 106.75 165.71 108.78 164.97 C 113.43 163.16 116.51 168.67 120.89 169.17 C 124.94 169.51 129.04 169.52 133.09 169.14 C 136.37 168.29 138.90 165.84 141.98 164.52 C 145.10 165.14 148.23 165.58 151.27 164.29 C 153.12 159.82 155.48 155.56 157.15 151.02 C 158.49 139.69 159.80 128.34 161.08 117.00 C 161.16 113.76 164.45 112.22 165.66 109.50 C 166.88 106.60 168.17 103.70 168.96 100.65 C 169.77 106.08 170.91 111.49 170.61 117.02 C 170.31 120.11 172.32 122.68 173.88 125.13 C 175.62 127.88 179.31 127.85 182.09 128.80 C 184.17 126.64 186.35 124.58 188.45 122.44 C 191.35 119.67 192.37 115.67 194.07 112.17 C 195.58 108.49 197.81 105.05 198.49 101.08 C 200.42 89.67 202.69 78.32 204.54 66.91 C 202.63 63.09 199.70 59.17 195.19 58.47 C 187.35 56.63 179.94 52.36 171.72 52.68 C 168.31 49.45 165.52 45.65 162.14 42.40 C 159.99 44.11 157.85 45.81 155.74 47.56 C 151.42 47.87 147.19 46.94 143.01 45.98 C 134.41 44.71 125.65 43.91 117.01 45.22 C 110.52 45.42 104.36 48.11 97.81 47.56 C 95.71 46.01 93.91 43.12 91.06 43.15 C 87.66 45.75 85.39 49.48 82.31 52.41 M 98.78 181.33 C 98.35 184.64 93.93 183.76 92.57 186.43 C 91.96 188.33 92.40 190.34 92.49 192.28 C 95.30 194.96 99.55 195.33 102.14 198.22 C 98.87 199.49 95.34 198.65 92.26 197.27 C 92.25 198.92 92.25 200.57 92.25 202.22 C 94.72 203.16 99.16 202.54 98.59 206.42 C 101.47 207.07 100.71 203.38 103.01 202.94 C 106.22 202.03 107.86 198.94 107.55 195.73 C 105.47 192.56 101.83 191.26 98.38 190.19 C 98.33 189.32 98.30 188.45 98.28 187.58 C 100.74 187.76 103.15 188.29 105.53 188.95 C 106.06 187.57 106.53 186.17 106.91 184.74 C 105.15 184.32 103.39 183.87 101.64 183.41 C 101.32 181.95 100.37 181.26 98.78 181.33 M 110.66 182.74 C 110.53 189.95 110.60 197.17 110.61 204.38 C 112.58 204.39 114.54 204.40 116.51 204.41 C 116.51 201.47 116.52 198.54 116.54 195.60 C 118.80 195.61 121.06 195.63 123.32 195.65 C 123.34 198.56 123.34 201.48 123.37 204.40 C 125.22 204.41 127.08 204.43 128.94 204.46 C 129.22 197.23 129.86 189.81 128.55 182.67 C 126.85 182.70 125.15 182.72 123.45 182.73 C 123.36 185.37 123.33 188.02 123.34 190.67 C 121.07 190.71 118.80 190.72 116.54 190.73 C 116.53 188.06 116.50 185.40 116.42 182.73 C 114.50 182.73 112.58 182.74 110.66 182.74 M 132.14 182.68 C 133.17 190.19 136.38 197.23 138.67 204.43 C 140.88 204.41 143.10 204.41 145.31 204.42 C 147.45 197.18 150.74 190.18 151.83 182.69 C 149.85 182.71 147.86 182.75 145.88 182.78 C 144.73 187.97 142.92 193.00 142.01 198.24 C 140.91 193.04 139.24 187.98 138.10 182.79 C 136.11 182.75 134.12 182.71 132.14 182.68 M 154.70 183.68 C 154.54 190.58 154.70 197.48 154.66 204.38 C 156.60 204.39 158.54 204.41 160.49 204.43 C 160.47 197.18 160.60 189.93 160.41 182.69 C 158.54 183.02 156.03 181.91 154.70 183.68 Z" />
</g>
<g id="#8d5839ff">
<path fill="#8d5839" opacity="1.00" d=" M 82.31 52.41 C 85.39 49.48 87.66 45.75 91.06 43.15 C 93.91 43.12 95.71 46.01 97.81 47.56 C 94.69 52.50 91.61 57.48 88.36 62.34 C 87.06 64.40 85.49 66.50 85.40 69.04 C 84.99 79.73 85.96 90.47 84.89 101.14 C 83.40 107.33 82.86 113.67 82.60 120.01 C 81.69 122.41 80.32 124.67 78.60 126.57 C 76.50 127.74 74.08 128.14 71.80 128.81 C 68.24 124.89 63.40 121.83 61.59 116.63 C 59.26 110.63 55.50 105.10 54.70 98.60 C 53.05 87.74 50.49 77.03 49.22 66.12 C 50.87 64.10 52.45 62.02 54.01 59.93 C 60.72 57.77 67.47 55.76 74.17 53.57 C 76.78 52.60 79.61 52.89 82.31 52.41 Z" />
<path fill="#8d5839" opacity="1.00" d=" M 155.74 47.56 C 157.85 45.81 159.99 44.11 162.14 42.40 C 165.52 45.65 168.31 49.45 171.72 52.68 C 179.94 52.36 187.35 56.63 195.19 58.47 C 199.70 59.17 202.63 63.09 204.54 66.91 C 202.69 78.32 200.42 89.67 198.49 101.08 C 197.81 105.05 195.58 108.49 194.07 112.17 C 192.37 115.67 191.35 119.67 188.45 122.44 C 186.35 124.58 184.17 126.64 182.09 128.80 C 179.31 127.85 175.62 127.88 173.88 125.13 C 172.32 122.68 170.31 120.11 170.61 117.02 C 170.91 111.49 169.77 106.08 168.96 100.65 C 167.53 90.47 168.67 80.18 168.25 69.95 C 168.25 66.71 166.43 63.93 164.73 61.33 C 161.69 56.76 158.71 52.16 155.74 47.56 Z" />
</g>
<g id="#aa6a42ff">
<path fill="#aa6a42" opacity="1.00" d=" M 97.81 47.56 C 104.36 48.11 110.52 45.42 117.01 45.22 C 125.65 43.91 134.41 44.71 143.01 45.98 C 147.19 46.94 151.42 47.87 155.74 47.56 C 158.71 52.16 161.69 56.76 164.73 61.33 C 166.43 63.93 168.25 66.71 168.25 69.95 C 168.67 80.18 167.53 90.47 168.96 100.65 C 168.17 103.70 166.88 106.60 165.66 109.50 C 164.45 112.22 161.16 113.76 161.08 117.00 C 159.80 128.34 158.49 139.69 157.15 151.02 C 155.48 155.56 153.12 159.82 151.27 164.29 C 148.23 165.58 145.10 165.14 141.98 164.52 C 138.90 165.84 136.37 168.29 133.09 169.14 C 129.04 169.52 124.94 169.51 120.89 169.17 C 116.51 168.67 113.43 163.16 108.78 164.97 C 106.75 165.71 104.67 164.86 102.67 164.45 C 100.54 160.23 98.50 155.94 96.74 151.56 C 94.85 139.39 94.08 127.05 92.18 114.88 C 88.47 111.07 86.27 106.24 84.89 101.14 C 85.96 90.47 84.99 79.73 85.40 69.04 C 85.49 66.50 87.06 64.40 88.36 62.34 C 91.61 57.48 94.69 52.50 97.81 47.56 M 91.58 80.58 C 90.25 82.22 89.52 84.97 91.39 86.51 C 93.96 88.96 97.78 89.28 100.96 90.56 C 103.61 89.66 106.21 88.63 108.75 87.48 C 107.27 84.59 106.73 80.95 104.52 78.58 C 100.37 77.57 94.41 76.42 91.58 80.58 M 148.73 78.56 C 147.39 81.63 145.71 84.62 145.33 88.00 C 147.88 88.79 150.35 89.86 152.98 90.40 C 156.02 89.53 159.25 88.76 161.90 86.99 C 163.81 85.68 164.07 83.13 162.57 81.40 C 160.01 76.31 153.27 77.53 148.73 78.56 M 110.56 136.84 C 110.60 139.54 110.36 142.27 110.85 144.93 C 113.16 148.25 116.00 151.22 118.99 153.94 C 123.79 156.74 130.06 156.68 134.85 153.87 C 137.16 151.85 139.12 149.46 141.16 147.18 C 143.97 144.31 143.35 139.90 142.72 136.30 C 139.99 134.79 137.27 132.85 134.02 132.79 C 129.34 132.70 124.66 132.71 119.98 132.80 C 116.42 132.84 113.30 134.76 110.56 136.84 Z" />
</g>
<g id="#482523ff">
<path fill="#482523" opacity="1.00" d=" M 91.58 80.58 C 94.41 76.42 100.37 77.57 104.52 78.58 C 106.73 80.95 107.27 84.59 108.75 87.48 C 106.21 88.63 103.61 89.66 100.96 90.56 C 97.78 89.28 93.96 88.96 91.39 86.51 C 89.52 84.97 90.25 82.22 91.58 80.58 Z" />
<path fill="#482523" opacity="1.00" d=" M 148.73 78.56 C 153.27 77.53 160.01 76.31 162.57 81.40 C 164.07 83.13 163.81 85.68 161.90 86.99 C 159.25 88.76 156.02 89.53 152.98 90.40 C 150.35 89.86 147.88 88.79 145.33 88.00 C 145.71 84.62 147.39 81.63 148.73 78.56 Z" />
</g>
<g id="#cc857dff">
<path fill="#cc857d" opacity="1.00" d=" M 110.56 136.84 C 113.30 134.76 116.42 132.84 119.98 132.80 C 124.66 132.71 129.34 132.70 134.02 132.79 C 137.27 132.85 139.99 134.79 142.72 136.30 C 143.35 139.90 143.97 144.31 141.16 147.18 C 139.12 149.46 137.16 151.85 134.85 153.87 C 130.06 156.68 123.79 156.74 118.99 153.94 C 116.00 151.22 113.16 148.25 110.85 144.93 C 110.36 142.27 110.60 139.54 110.56 136.84 Z" />
</g>
</svg>

<?xml version="1.0" encoding="utf-8"?>
<!-- Generator: Adobe Illustrator 26.0.3, SVG Export Plug-In . SVG Version: 6.00 Build 0)  -->
<svg version="1.1" id="Layer_1" xmlns="http://www.w3.org/2000/svg" xmlns:xlink="http://www.w3.org/1999/xlink" x="0px" y="0px"
	 viewBox="0 0 250 246" style="enable-background:new 0 0 250 246;" xml:space="preserve">
<style type="text/css">
	.st0{fill:#FFFFFF;}
	.st1{fill:#3EA198;}
	.st2{fill:#8D5839;}
	.st3{fill:#AA6A42;}
	.st4{fill:#482523;}
	.st5{fill:#CC857D;}
</style>
<g id="_x23_ffffffff">
	<path class="st0" d="M98.8,181.3c1.6-0.1,2.5,0.6,2.9,2.1c1.8,0.5,3.5,0.9,5.3,1.3c-0.4,1.4-0.9,2.8-1.4,4.2
		c-2.4-0.7-4.8-1.2-7.2-1.4c0,0.9,0.1,1.7,0.1,2.6c3.5,1.1,7.1,2.4,9.2,5.5c0.3,3.2-1.3,6.3-4.5,7.2c-2.3,0.4-1.5,4.1-4.4,3.5
		c0.6-3.9-3.9-3.3-6.3-4.2c0-1.6,0-3.3,0-4.9c3.1,1.4,6.6,2.2,9.9,0.9c-2.6-2.9-6.8-3.3-9.7-5.9c-0.1-1.9-0.5-3.9,0.1-5.9
		C93.9,183.8,98.3,184.6,98.8,181.3z"/>
	<path class="st0" d="M110.7,182.7c1.9,0,3.8,0,5.8,0c0.1,2.7,0.1,5.3,0.1,8c2.3,0,4.5,0,6.8-0.1c0-2.6,0-5.3,0.1-7.9
		c1.7,0,3.4,0,5.1-0.1c1.3,7.1,0.7,14.6,0.4,21.8c-1.9,0-3.7-0.1-5.6-0.1c0-2.9,0-5.8-0.1-8.8c-2.3,0-4.5,0-6.8,0c0,2.9,0,5.9,0,8.8
		c-2,0-3.9,0-5.9,0C110.6,197.2,110.5,189.9,110.7,182.7z"/>
	<path class="st0" d="M132.1,182.7c2,0,4,0.1,6,0.1c1.1,5.2,2.8,10.2,3.9,15.5c0.9-5.2,2.7-10.3,3.9-15.5c2,0,4-0.1,5.9-0.1
		c-1.1,7.5-4.4,14.5-6.5,21.7c-2.2,0-4.4,0-6.6,0C136.4,197.2,133.2,190.2,132.1,182.7z"/>
	<path class="st0" d="M154.7,183.7c1.3-1.8,3.8-0.7,5.7-1c0.2,7.2,0.1,14.5,0.1,21.7c-2,0-3.9,0-5.8,0
		C154.7,197.5,154.5,190.6,154.7,183.7z"/>
</g>
<g id="_x23_3ea198ff">
	<path class="st1" d="M118.2,15.3c14.9-1.4,30.1,0.7,44.2,5.6c26,9.1,48,28.8,60.1,53.6c8.1,16.2,11.6,34.5,11,52.6
		c-1.4,27.4-13.8,54-33.9,72.6c-23,21.8-56.1,32.4-87.4,27.7c-27.2-3.6-52.8-18.2-69.7-39.9C18,156.9,12.6,112.6,29.4,77.2
		C44.9,42.5,80.3,17.7,118.2,15.3 M82.3,52.4c-2.7,0.5-5.5,0.2-8.1,1.2c-6.7,2.2-13.4,4.2-20.2,6.4c-1.6,2.1-3.1,4.2-4.8,6.2
		C50.5,77,53,87.7,54.7,98.6c0.8,6.5,4.6,12,6.9,18c1.8,5.2,6.6,8.3,10.2,12.2c2.3-0.7,4.7-1.1,6.8-2.2c1.7-1.9,3.1-4.2,4-6.6
		c0.3-6.3,0.8-12.7,2.3-18.9c1.4,5.1,3.6,9.9,7.3,13.7c1.9,12.2,2.7,24.5,4.6,36.7c1.8,4.4,3.8,8.7,5.9,12.9c2,0.4,4.1,1.3,6.1,0.5
		c4.7-1.8,7.7,3.7,12.1,4.2c4.1,0.3,8.1,0.4,12.2,0c3.3-0.9,5.8-3.3,8.9-4.6c3.1,0.6,6.2,1.1,9.3-0.2c1.8-4.5,4.2-8.7,5.9-13.3
		c1.3-11.3,2.7-22.7,3.9-34c0.1-3.2,3.4-4.8,4.6-7.5c1.2-2.9,2.5-5.8,3.3-8.8c0.8,5.4,1.9,10.8,1.6,16.4c-0.3,3.1,1.7,5.7,3.3,8.1
		c1.7,2.8,5.4,2.7,8.2,3.7c2.1-2.2,4.3-4.2,6.4-6.4c2.9-2.8,3.9-6.8,5.6-10.3c1.5-3.7,3.7-7.1,4.4-11.1c1.9-11.4,4.2-22.8,6-34.2
		c-1.9-3.8-4.8-7.7-9.3-8.4c-7.8-1.8-15.2-6.1-23.5-5.8c-3.4-3.2-6.2-7-9.6-10.3c-2.1,1.7-4.3,3.4-6.4,5.2
		c-4.3,0.3-8.6-0.6-12.7-1.6c-8.6-1.3-17.4-2.1-26-0.8c-6.5,0.2-12.7,2.9-19.2,2.3c-2.1-1.6-3.9-4.4-6.8-4.4
		C87.7,45.8,85.4,49.5,82.3,52.4 M98.8,181.3c-0.4,3.3-4.8,2.4-6.2,5.1c-0.6,1.9-0.2,3.9-0.1,5.9c2.8,2.7,7.1,3.1,9.7,5.9
		c-3.3,1.3-6.8,0.4-9.9-0.9c0,1.6,0,3.3,0,4.9c2.5,0.9,6.9,0.3,6.3,4.2c2.9,0.7,2.1-3,4.4-3.5c3.2-0.9,4.8-4,4.5-7.2
		c-2.1-3.2-5.7-4.5-9.2-5.5c0-0.9-0.1-1.7-0.1-2.6c2.5,0.2,4.9,0.7,7.2,1.4c0.5-1.4,1-2.8,1.4-4.2c-1.8-0.4-3.5-0.9-5.3-1.3
		C101.3,181.9,100.4,181.3,98.8,181.3 M110.7,182.7c-0.1,7.2-0.1,14.4-0.1,21.6c2,0,3.9,0,5.9,0c0-2.9,0-5.9,0-8.8
		c2.3,0,4.5,0,6.8,0c0,2.9,0,5.8,0.1,8.8c1.8,0,3.7,0,5.6,0.1c0.3-7.2,0.9-14.7-0.4-21.8c-1.7,0-3.4,0.1-5.1,0.1
		c-0.1,2.6-0.1,5.3-0.1,7.9c-2.3,0-4.5,0.1-6.8,0.1c0-2.7,0-5.3-0.1-8C114.5,182.7,112.6,182.7,110.7,182.7 M132.1,182.7
		c1,7.5,4.2,14.6,6.5,21.8c2.2,0,4.4,0,6.6,0c2.1-7.2,5.4-14.2,6.5-21.7c-2,0-4,0.1-5.9,0.1c-1.2,5.2-3,10.2-3.9,15.5
		c-1.1-5.2-2.8-10.3-3.9-15.5C136.1,182.8,134.1,182.7,132.1,182.7 M154.7,183.7c-0.2,6.9,0,13.8,0,20.7c1.9,0,3.9,0,5.8,0
		c0-7.2,0.1-14.5-0.1-21.7C158.5,183,156,181.9,154.7,183.7z"/>
</g>
<g id="_x23_8d5839ff">
	<path class="st2" d="M82.3,52.4c3.1-2.9,5.4-6.7,8.8-9.3c2.9,0,4.7,2.9,6.8,4.4c-3.1,4.9-6.2,9.9-9.4,14.8c-1.3,2.1-2.9,4.2-3,6.7
		C85,79.7,86,90.5,84.9,101.1c-1.5,6.2-2,12.5-2.3,18.9c-0.9,2.4-2.3,4.7-4,6.6c-2.1,1.2-4.5,1.6-6.8,2.2c-3.6-3.9-8.4-7-10.2-12.2
		c-2.3-6-6.1-11.5-6.9-18C53,87.7,50.5,77,49.2,66.1c1.6-2,3.2-4.1,4.8-6.2c6.7-2.2,13.5-4.2,20.2-6.4
		C76.8,52.6,79.6,52.9,82.3,52.4z"/>
	<path class="st2" d="M155.7,47.6c2.1-1.8,4.2-3.5,6.4-5.2c3.4,3.2,6.2,7,9.6,10.3c8.2-0.3,15.6,4,23.5,5.8c4.5,0.7,7.4,4.6,9.3,8.4
		c-1.8,11.4-4.1,22.8-6,34.2c-0.7,4-2.9,7.4-4.4,11.1c-1.7,3.5-2.7,7.5-5.6,10.3c-2.1,2.1-4.3,4.2-6.4,6.4c-2.8-1-6.5-0.9-8.2-3.7
		c-1.6-2.4-3.6-5-3.3-8.1c0.3-5.5-0.8-10.9-1.6-16.4c-1.4-10.2-0.3-20.5-0.7-30.7c0-3.2-1.8-6-3.5-8.6
		C161.7,56.8,158.7,52.2,155.7,47.6z"/>
</g>
<g id="_x23_aa6a42ff">
	<path class="st3" d="M97.8,47.6c6.6,0.5,12.7-2.1,19.2-2.3c8.6-1.3,17.4-0.5,26,0.8c4.2,1,8.4,1.9,12.7,1.6c3,4.6,5.9,9.2,9,13.8
		c1.7,2.6,3.5,5.4,3.5,8.6c0.4,10.2-0.7,20.5,0.7,30.7c-0.8,3-2.1,5.9-3.3,8.8c-1.2,2.7-4.5,4.3-4.6,7.5c-1.3,11.3-2.6,22.7-3.9,34
		c-1.7,4.5-4,8.8-5.9,13.3c-3,1.3-6.2,0.9-9.3,0.2c-3.1,1.3-5.6,3.8-8.9,4.6c-4.1,0.4-8.1,0.4-12.2,0c-4.4-0.5-7.5-6-12.1-4.2
		c-2,0.7-4.1-0.1-6.1-0.5c-2.1-4.2-4.2-8.5-5.9-12.9c-1.9-12.2-2.7-24.5-4.6-36.7c-3.7-3.8-5.9-8.6-7.3-13.7
		C86,90.5,85,79.7,85.4,69c0.1-2.5,1.7-4.6,3-6.7C91.6,57.5,94.7,52.5,97.8,47.6 M91.6,80.6c-1.3,1.6-2.1,4.4-0.2,5.9
		c2.6,2.4,6.4,2.8,9.6,4c2.7-0.9,5.2-1.9,7.8-3.1c-1.5-2.9-2-6.5-4.2-8.9C100.4,77.6,94.4,76.4,91.6,80.6 M148.7,78.6
		c-1.3,3.1-3,6.1-3.4,9.4c2.6,0.8,5,1.9,7.6,2.4c3-0.9,6.3-1.6,8.9-3.4c1.9-1.3,2.2-3.9,0.7-5.6C160,76.3,153.3,77.5,148.7,78.6
		 M110.6,136.8c0,2.7-0.2,5.4,0.3,8.1c2.3,3.3,5.2,6.3,8.1,9c4.8,2.8,11.1,2.7,15.9-0.1c2.3-2,4.3-4.4,6.3-6.7
		c2.8-2.9,2.2-7.3,1.6-10.9c-2.7-1.5-5.4-3.4-8.7-3.5c-4.7-0.1-9.4-0.1-14,0C116.4,132.8,113.3,134.8,110.6,136.8z"/>
</g>
<g id="_x23_482523ff">
	<path class="st4" d="M91.6,80.6c2.8-4.2,8.8-3,12.9-2c2.2,2.4,2.8,6,4.2,8.9c-2.5,1.1-5.1,2.2-7.8,3.1c-3.2-1.3-7-1.6-9.6-4
		C89.5,85,90.2,82.2,91.6,80.6z"/>
	<path class="st4" d="M148.7,78.6c4.5-1,11.3-2.2,13.8,2.8c1.5,1.7,1.2,4.3-0.7,5.6c-2.6,1.8-5.9,2.5-8.9,3.4
		c-2.6-0.5-5.1-1.6-7.6-2.4C145.7,84.6,147.4,81.6,148.7,78.6z"/>
</g>
<g id="_x23_cc857dff">
	<path class="st5" d="M110.6,136.8c2.7-2.1,5.9-4,9.4-4c4.7-0.1,9.4-0.1,14,0c3.2,0.1,6,2,8.7,3.5c0.6,3.6,1.2,8-1.6,10.9
		c-2,2.3-4,4.7-6.3,6.7c-4.8,2.8-11.1,2.9-15.9,0.1c-3-2.7-5.8-5.7-8.1-9C110.4,142.3,110.6,139.5,110.6,136.8z"/>
</g>
</svg>
